azure-patterns/svg-windows-10-iot-core.svg

<svg xmlns="http://www.w3.org/2000/svg" viewBox="0 0 82 82">
                                
                            
    <g stroke="none" stroke-width="1" fill="#0078D7" fill-rule="evenodd">
        <path d="M65.2296,8.1716 L68.8496,1.1016 C69.0436,0.7356 68.9056,0.2816 68.5396,0.0876 C68.4166,0.0226 68.2786,-0.0074 68.1396,0.0016 L41.5806,1.3516 C41.1666,1.3726 40.8476,1.7246 40.8686,2.1376 C40.8756,2.2716 40.9176,2.4006 40.9906,2.5116 L55.4296,24.8416 C55.6616,25.1926 56.1326,25.2886 56.4826,25.0576 C56.5916,24.9856 56.6796,24.8876 56.7406,24.7716 L59.9106,18.5716 C60.0996,18.1966 60.5566,18.0466 60.9306,18.2356 C60.9966,18.2686 61.0566,18.3116 61.1106,18.3616 C66.1106,23.2116 71.3896,30.6516 71.3896,40.4716 C71.3906,57.6476 57.4676,71.5726 40.2926,71.5726 C35.0836,71.5736 29.9606,70.2666 25.3896,67.7716 C25.0396,67.5746 24.5936,67.6946 24.3896,68.0416 L20.2596,75.2016 C20.0776,75.5596 20.2046,75.9976 20.5496,76.2016 C40.3016,87.1146 65.1616,79.9496 76.0746,60.1976 C79.4116,54.1576 81.1646,47.3716 81.1696,40.4716 C81.1696,28.7716 75.6106,17.7516 65.4396,9.0816 C65.1636,8.8666 65.0756,8.4866 65.2296,8.1716"></path>
        <path d="M25.71,77.4816 L27.6,74.2016 C45.94,81.0526 66.362,71.7396 73.214,53.3986 C80.065,35.0586 70.752,14.6366 52.412,7.7846 C50.292,6.9926 48.102,6.4056 45.87,6.0316 L45.87,2.2416 C45.87,1.7716 45.39,2.2416 45.01,2.0116 L42.43,2.1016 C41.85,2.1016 42.2,2.8116 42.51,3.3016 L50.7,17.5216 C53.368,18.7446 55.813,20.4086 57.93,22.4416 L59.93,18.5716 C60.061,18.3156 60.322,18.1536 60.61,18.1516 C60.804,18.1516 60.99,18.2266 61.13,18.3616 C66.13,23.2116 71.41,30.6516 71.41,40.4716 C71.411,57.6476 57.487,71.5726 40.312,71.5726 C35.105,71.5736 29.981,70.2666 25.41,67.7716 C25.298,67.7066 25.17,67.6716 25.04,67.6716 C24.776,67.6736 24.533,67.8146 24.4,68.0416 L20.27,75.2016 C20.174,75.3606 20.146,75.5516 20.189,75.7316 L23.92,77.8816 L24.18,77.9916 C24.746,78.2216 25.396,78.0046 25.71,77.4816"></path>
        <path d="M19.0401,74.5114 L23.1701,67.3614 C23.5451,66.7044 24.2431,66.2994 25.0001,66.3014 C25.3501,66.3074 25.6921,66.3964 26.0001,66.5614 C40.4041,74.4424 58.4711,69.1544 66.3521,54.7504 C68.7471,50.3724 70.0011,45.4614 70.0001,40.4714 C70.0001,31.3414 65.1001,24.3614 60.7401,19.9514 L58.9301,23.4914 C68.6631,33.9584 68.0681,50.3344 57.6021,60.0674 C47.1351,69.8004 30.7591,69.2054 21.0251,58.7384 C11.2921,48.2714 11.8871,31.8964 22.3541,22.1624 C29.3741,15.6354 39.4271,13.5224 48.4791,16.6714 L39.8301,3.2614 C39.4211,2.6204 39.3791,1.8114 39.7201,1.1314 L39.8301,0.9814 L35.4201,0.9814 C34.7291,0.9814 34.1701,1.5414 34.1701,2.2314 L34.1701,2.2414 L34.1701,6.0314 C31.9281,6.4044 29.7281,6.9934 27.6001,7.7914 L25.7101,4.5114 C25.3651,3.9074 24.5961,3.6964 23.9911,4.0404 C23.9911,4.0404 23.9901,4.0414 23.9901,4.0414 L15.9901,8.6414 C15.3891,8.9904 15.1831,9.7594 15.5301,10.3614 L17.4701,13.6714 C15.7261,15.1204 14.1191,16.7274 12.6701,18.4714 L9.3801,16.5714 C8.7781,16.2244 8.0081,16.4294 7.6601,17.0314 L3.0701,24.9614 C2.7291,25.5614 2.9351,26.3234 3.5301,26.6714 L6.8101,28.5714 C6.0121,30.6954 5.4261,32.8924 5.0601,35.1314 L1.2601,35.1314 C0.5661,35.1364 0.0051,35.6984 0.0001,36.3914 L0.0001,45.5814 C0.0051,46.2754 0.5661,46.8364 1.2601,46.8414 L5.0601,46.8414 C5.4261,49.0804 6.0121,51.2784 6.8101,53.4014 L3.5301,55.2914 C2.9291,55.6394 2.7231,56.4094 3.0701,57.0114 L7.6601,65.0114 C8.0081,65.6134 8.7781,65.8194 9.3801,65.4714 L12.6701,63.5714 C14.1221,65.3134 15.7281,66.9194 17.4701,68.3714 L15.5701,71.6714 C15.2231,72.2734 15.4291,73.0434 16.0301,73.3914 L18.8401,75.0114 C18.8831,74.8364 18.9501,74.6674 19.0401,74.5114"></path>
        <path d="M51.6602,32.5114 L51.6602,44.2514 C51.6602,47.4014 50.2502,53.3614 40.2502,57.8514 L40.0192,57.9514 L39.7802,57.8514 C29.7802,53.3614 28.3402,47.4014 28.3802,44.2214 L28.3802,32.5314 L28.8892,32.4714 C32.8152,32.1184 36.5562,30.6394 39.6602,28.2114 L40.0302,27.9114 L40.3892,28.2114 C43.4982,30.6394 47.2412,32.1194 51.1702,32.4714 L51.6602,32.5114 Z M54.5902,29.6714 C54.5512,29.6574 54.5092,29.6574 54.4702,29.6714 L54.0002,29.6714 C47.9202,29.6714 42.3602,27.1814 40.1702,23.5014 C40.1212,23.4214 40.0162,23.3964 39.9362,23.4454 C39.9132,23.4594 39.8932,23.4784 39.8802,23.5014 C37.6702,27.1814 32.1702,29.6714 26.0402,29.6714 L25.5702,29.6714 C25.5222,29.6754 25.4772,29.6924 25.4392,29.7214 C25.4092,29.7584 25.3912,29.8034 25.3892,29.8514 L25.3892,33.8514 L25.3892,44.2214 C25.3892,48.3214 27.1702,55.9714 39.9392,61.1614 L40.0702,61.1614 C52.8402,55.9714 54.6702,48.3214 54.6202,44.2214 L54.6202,33.8514 L54.6202,29.8514 C54.6382,29.7904 54.6272,29.7234 54.5902,29.6714 Z"></path>
        <path d="M36.0802,40.7614 L37.7402,40.7614 C37.8342,40.7614 37.9102,40.6854 37.9102,40.5924 L37.9102,40.5814 L37.9102,37.9614 C37.8302,36.7994 38.7072,35.7914 39.8702,35.7114 C41.0322,35.6314 42.0402,36.5084 42.1202,37.6714 C42.1272,37.7674 42.1272,37.8654 42.1202,37.9614 L42.1202,40.5814 C42.1202,40.6774 42.1942,40.7564 42.2902,40.7614 L43.9602,40.7614 C44.0562,40.7564 44.1302,40.6774 44.1302,40.5814 L44.1302,37.9614 C44.1302,35.6914 42.2902,33.8514 40.0192,33.8514 C37.7502,33.8514 35.9102,35.6914 35.9102,37.9614 L35.9102,40.5814 C35.9042,40.6754 35.9762,40.7554 36.0692,40.7614 L36.0802,40.7614 Z"></path>
        <path d="M41.0596,48.0417 C41.0796,48.0857 41.0796,48.1367 41.0596,48.1817 C41.0296,48.2237 40.9816,48.2497 40.9296,48.2517 L39.1696,48.2517 C39.0766,48.2537 38.9976,48.1807 38.9956,48.0857 C38.9956,48.0717 38.9966,48.0567 38.9996,48.0417 L39.4506,45.9917 C38.8296,45.6657 38.5896,44.8977 38.9146,44.2767 C39.2416,43.6557 40.0086,43.4167 40.6296,43.7427 C41.0456,43.9607 41.3076,44.3917 41.3096,44.8617 C41.3126,45.3387 41.0446,45.7757 40.6206,45.9917 L41.0596,48.0417 Z M45.5306,41.3517 C45.5246,41.2557 45.4456,41.1817 45.3496,41.1817 L34.6796,41.1817 C34.5876,41.1867 34.5146,41.2597 34.5096,41.3517 L34.5096,48.7617 C34.5096,49.8817 37.6506,51.3817 40.0196,51.4017 C42.3896,51.4217 45.5306,49.8817 45.5306,48.7417 L45.5306,41.3517 Z"></path>
    </g>
</svg>

<svg xmlns="http://www.w3.org/2000/svg" viewBox="0 0 82 82"><g fill="#0078D7" fill-rule="evenodd"><path d="M65.23 8.172l3.62-7.07a.75.75 0 0 0-.71-1.1l-26.56 1.35a.75.75 0 0 0-.59 1.16l14.44 22.33a.76.76 0 0 0 1.31-.07l3.17-6.2a.759.759 0 0 1 1.2-.21c5 4.85 10.28 12.29 10.28 22.11 0 17.176-13.922 31.1-31.097 31.1a31.09 31.09 0 0 1-14.903-3.8.74.74 0 0 0-1 .27l-4.13 7.16a.761.761 0 0 0 .29 1c19.752 10.913 44.612 3.748 55.525-16.004a40.852 40.852 0 0 0 5.095-19.726c0-11.7-5.56-22.72-15.73-31.39a.741.741 0 0 1-.21-.91"/><path d="M25.71 77.482l1.89-3.28c18.34 6.85 38.762-2.462 45.614-20.803 6.851-18.34-2.462-38.762-20.802-45.614a35.414 35.414 0 0 0-6.542-1.753v-3.79c0-.47-.48 0-.86-.23l-2.58.09c-.58 0-.23.71.08 1.2l8.19 14.22a26.207 26.207 0 0 1 7.23 4.92l2-3.87a.77.77 0 0 1 .68-.42c.194 0 .38.075.52.21 5 4.85 10.28 12.29 10.28 22.11.001 17.176-13.923 31.1-31.098 31.1a31.091 31.091 0 0 1-14.902-3.8.739.739 0 0 0-1.01.27l-4.13 7.16a.708.708 0 0 0-.081.53l3.731 2.15.26.11a1.24 1.24 0 0 0 1.53-.51"/><path d="M19.04 74.511l4.13-7.15a2.1 2.1 0 0 1 1.83-1.06c.35.006.692.095 1 .26 14.404 7.881 32.471 2.593 40.352-11.81A29.74 29.74 0 0 0 70 40.47c0-9.13-4.9-16.11-9.26-20.52l-1.81 3.54c9.733 10.467 9.138 26.843-1.328 36.576-10.467 9.733-26.843 9.138-36.577-1.329-9.733-10.467-9.138-26.842 1.33-36.576a25.88 25.88 0 0 1 26.124-5.49L39.83 3.261a2.16 2.16 0 0 1-.11-2.13l.11-.15h-4.41c-.69 0-1.25.56-1.25 1.25v3.8a35.128 35.128 0 0 0-6.57 1.76l-1.89-3.28a1.262 1.262 0 0 0-1.719-.472v.001l-8 4.6a1.26 1.26 0 0 0-.46 1.72l1.94 3.31a36.896 36.896 0 0 0-4.8 4.8l-3.29-1.9a1.26 1.26 0 0 0-1.72.46l-4.59 7.93a1.26 1.26 0 0 0 .46 1.71l3.28 1.9a34.455 34.455 0 0 0-1.75 6.56h-3.8A1.27 1.27 0 0 0 0 36.391v9.19a1.269 1.269 0 0 0 1.26 1.26h3.8a34.435 34.435 0 0 0 1.75 6.56l-3.28 1.89a1.26 1.26 0 0 0-.46 1.72l4.59 8a1.259 1.259 0 0 0 1.72.46l3.29-1.9a37.53 37.53 0 0 0 4.8 4.8l-1.9 3.3a1.26 1.26 0 0 0 .46 1.72l2.81 1.62c.042-.175.11-.344.2-.5"/><path d="M51.66 32.511v11.74c0 3.15-1.41 9.11-11.41 13.6l-.23.1-.24-.1c-10-4.49-11.44-10.45-11.4-13.63v-11.69l.51-.06a20.456 20.456 0 0 0 10.77-4.26l.37-.3.36.3a20.486 20.486 0 0 0 10.78 4.26l.49.04zm2.93-2.84a.177.177 0 0 0-.12 0H54c-6.08 0-11.64-2.49-13.83-6.17a.17.17 0 0 0-.29 0c-2.21 3.68-7.71 6.17-13.84 6.17h-.47a.248.248 0 0 0-.13.05.22.22 0 0 0-.05.13v14.37c0 4.1 1.78 11.75 14.55 16.94h.13c12.77-5.19 14.6-12.84 14.55-16.94v-14.37a.21.21 0 0 0-.03-.18z"/><path d="M36.08 40.761h1.66a.17.17 0 0 0 .17-.169v-2.63a2.11 2.11 0 1 1 4.21 0v2.62a.18.18 0 0 0 .17.18h1.67a.18.18 0 0 0 .17-.18v-2.62a4.11 4.11 0 0 0-8.22 0v2.62a.17.17 0 0 0 .16.18h.01zM41.06 48.042a.17.17 0 0 1 0 .14.168.168 0 0 1-.13.07h-1.76a.17.17 0 0 1-.17-.21l.45-2.05a1.27 1.27 0 1 1 1.859-1.13 1.26 1.26 0 0 1-.688 1.13l.439 2.05zm4.47-6.69a.18.18 0 0 0-.18-.17H34.68a.18.18 0 0 0-.17.17v7.41c0 1.12 3.14 2.62 5.51 2.64 2.37.02 5.51-1.52 5.51-2.66v-7.39z"/></g></svg>
